X: 10081
Q: "Slow"
M: C
L: 1/8
K: D
d>cBA B<dF2 | A>BAF A3c |\
d>cBA B<dF2 | E<E F>A B2B :|
|: A |\
f>ed>c d>cB>A | (B/c/d) (c/d/e) d2d :|


